X:1
T:A minor Samuel Holyoke, 1804
T:Isaac Watts, 1706 Confession and Pardon     66. 86. (S. M.) 
T:Medford Transcribed from The Christian Harmonist, 1804.
%%score [ 1 2 3 4 ]
L:1/8
Q:1/4=120
M:2/2
K:C
V:1 treble nm="Treble" snm="Tr."
V:2 treble nm="Counter" snm="C."
V:3 treble-8 nm="Tenor" snm="T."
V:4 bass nm="Bass" snm="B."
V:1
 c8 | (c3 d e2) B2 | (c2 B2) (A2 ^G2) | A6 ^G2 | (A3 B c2) c2 | B4 (B3 A) | ^G6 z2 | z8 | z8 | %9
w: 1.~My|sor- * * rows,|like * a *|flood, Im-|pa- * * tient|with re- *|straint,|||
w: 2.~But|I, * * a|stu- * pid *|fool, How|long * * have|I with- *|stood|||
w: 3.~Now|for * * one|power- * ful *|glance, Dear|Sa- * * vior,|from thy *|face!|||
 z4 z2 B2 | c2 c2 c2 c2 | d4 c4 | B6 ed | c2 c2 c2 B2 | E6 G2 | G6 B2 | c6 BA | ^G6 e2 | %18
w: In-|to thy bo- som,|O my|God, Pour *|out a long com-|plaint, Pour|out a|long com- *|plaint, Pour|
w: The|bles- sings pur- chased|with his|soul, And *|paid for all in|blood, And|paid for|all in *|blood, And|
w: This|re- bel heart no|more with-|stands, But *|sinks be- neath thy|grace, But|sinks be-|neath thy *|grace, But|
 (efed c2) cB | A8 | ^G8 | A8 |] %22
w: out~ _ _ _ _ a *|long|com-|plaint.|
w: paid~ _ _ _ _ for *|all|in|blood!|
w: sinks~ _ _ _ _ be- *|neath|thy|grace.|
V:2
 E8 | E6 F2 | (E2 F2) E4 | E6 E2 | E6 E2 | E4 ^D4 | E6 z2 | z8 | z4 z2 E2 | G6 ^G2 | A6 G2 | %11
w: ||||||||In-|to thy|bo- som,|
w: ||||||||The|bles- sings|pur- chased|
w: ||||||||This|re- be;|heart no|
 G4 G4 | G6 z2 | z8 | z4 z2 GF | E2 E2 E2 F2 | G2 G2 G2 F2 | E2 E2 E2 ^G2 | A4 E4 | F8 | E8 | E8 |] %22
w: O my|God,||Pour *|out a long com-|plaint, Pour out a|long com- plaint, Pour|out a|long|com-|plaint.|
w: with his|soul,||And *|paid for all in|blood, And paid for|all in blood, And|paid for|all|in|blood.|
w: more with-|stands,||But *|sinks be- neath thy|grace, But sinks be-|neath thy grace, But|sinks be-|neath|thy|grace.|
V:3
 e8 | (A3 B c2) d2 | (e2 d2) (c2 B2) | A6 B2 | (c3 d e2) A2 | G4 ^F4 | E6 E2 | A2 A2 A2 c2 | %8
w: 1.~My|sor- * * rows,|like * a *|flood, Im-|pa- * * tient|with re-|straint, In-|to thy bo- som,|
w: 2.~But|I, * * a|stu- * pid *|fool, How|long * * have|I with-|stood The|bles- sings pur- chased|
w: 3.~Now|for * * one|power- * ful *|glance, Dear|Sa- * * vior,|from thy|face! This|re- bel heart no|
 B6 c2 | d6 e2 | e2 e2 e2 e2 | f4 e4 | d6 z2 | z4 z2 ed | c2 c2 c2 B2 | c6 d2 | e2 e2 e2 dc | %17
w: O my|God, In-|to thy bo- som,|O my|God,|Pour *|out a long com-|plaint, Pour|out a long com- *|
w: with his|soul, The|bles- sings pur- chased|with his|soul,|And *|paid for all in|blood, And|paid for all in *|
w: more with-|stands, This|re- bel heart no|more with-|stands,|But *|sinks be- neath thy|grace, But|sinks be- neath thy *|
 B6 B2 | (cdcd e2) ed | (c2 A2 d2 c2) | B8 | A8 |] %22
w: plaint, Pour|out~ _ _ _ _ a *|long~ _ _ _|com-|plaint.|
w: blood, And|paid~ _ _ _ _ for *|all~ _ _ _|in|blood!|
w: grace, But|sinks~ _ _ _ _ be- *|neath~ _ _ _|thy|grace.|
V:4
 A,8 | A,6 G,2 | (C,2 D,2) E,4 | A,,6 E,2 | A,6 A,2 | B,4 B,,4 | E,6 z2 | z4 z2 A,,2 | %8
w: |||||||In-|
w: |||||||The|
w: |||||||This|
 E,2 E,2 E,2 C,2 | G,2 G,2 G,2 E,2 | A,2 A,2 A,2 C2 | B,4 C4 | G,6 z2 | z8 | z8 | z4 z2 G,2 | %16
w: to thy bo- som,|O my God, In-|to thy bo- som,|O my|God,|||Pour|
w: bles- sings pur- chased|with his soul, The|bles- sings pur- chased|with his|soul,|||And|
w: re- bel heart no|more with- stands, This|re- bel heart no|more with-|stands,|||But|
 C,2 C,2 C,2 D,2 | E,6 E,2 | A,6 E,2 | (F,4 D,4) | E,8 | A,,8 |] %22
w: out a long com-|plaint, Pour|out a|long~ _|com-|plaint.|
w: paid for all in|blood, And|paid for|all~ _|in|blood.|
w: sinks be- neath thy|grace, But|sinks be-|neath~ _|thy|grace.|

